X: 21930
T: Kitten, The
R: slip jig
M: 9/8
K: Eminor
D|:G2 B GEE GEE|GAF GEE F2 D|G2 B GEE GEE|FGA ABG FED:|
|:G2 c BGd BGd|G2 c BGd cBA|G2 c BGd BGd|ecA ABG FED:|
|:BcA BEE BEE|BcA BEE FED|BcA BEE BEE|FGA ABG FED:|
|:G2 G dBG BdB|G2 G dBG ecA|GBd gag gdB|ecA ABG FED:|
|:BGE cGE dGE|cGE BGE AFD|BGE cGE dGE|d2 B ABG FED:|

